X: 1658
T: Annie's Favourite
R: hornpipe
M: 4/4
K: Gmajor
|:(3DEF|G2BG ABcA|defa gfdc|BGBd cAFA|GBAF DEFD|
GABG ABcA|defa gfdc|B2Bd cAFG|AGGF G2:|
|:(3ABc|dggf gfdf|g2af gfde|f3g afge|fdec dBcA|
GABG ABcA|defa gfdc|BABd cAFG|AGGF G2:|

